!!!SOCIAL_FUNCTION:	songs with hunting dance
!!!PDT:	1956
!!!OTL: No_46_Cow_Creek_Hunting_Dance_Song_(m).krn
!!!LANG: Non-Tone
!!!LING_GROUP: Muskogean
!!!REG: Florida
**kern
*staff1
=1-
*clefF4
*k[b-]
*M3/4
2r
8.c\L
16A\Jk
=2
4.A\
8G\
8.A\L
16F\Jk
=3
4F\
[4F\
8F\L]
16A\L
16G\JJ
=4
8F\L
8D\J
4D\
8G\L
8F\J
=5||
*M2/4
8.D\L
16D\Jk
4D\
=6
8D\
8r
8D\L
16A\L
16F\JJ
=7||
*M3/4
4.A\
8G\
8.A\L
16F\Jk
=8
4F\
4F\
8A\L
8c\J
=9
4.A\
8G\
8.A\L
16F\Jk
=10
4F\
[4F\
8F\L]
16A\L
16G\JJ
=11
8F\L
8D\J
4D\
8G\L
8F\J
=12
8.D\L
16D\Jk
4D\
8D\
8r
==
*-
